X:10
T:Butlers of Glen Avenue
C:Tom Sullivan
Z:Philippe Murphy
N:Title changed from Christy Barry's number 2. Thanks to Stephen Rapp
R:jig
M:6/8
L:1/8
K:G
DEG EDB | DEG B3 | DEG B2e | dBe dBA |
DEG EDB | DEG B3 | d (3B^cd gfe |1 dBA G3 :|2 dba g3 |:
gab age | deg B3 | gab gab | d (3B^cd e2d |
gab age | deg B3 | d (3B^cd gfe |1 dba g3 :|2 dBA G3 ||
